!!!SOCIAL_FUNCTION:	love songs
!!!PDT:	1943
!!!OTL: No_82_Give_Me_a_Bottle_of_Rum.krn
!!!REG: British Columbia
**kern
*staff1
=1-
*clefG2
*k[b-e-a-d-]
*M2/4
4.r
8e-/
=2
[2f/
=3
2f/]
=4
8c/L
8c/J
16c/
16r
8f/
=5
4f/
8g/L
16f/L
16f/JJ
=6||
*M3/4
8f/L
8f/J
8e-/L
8e-/J
8d-/L
8e-/J
=7||
*M5/8
16d-/LK
8.d-/
8B-/
8A-/
8A-/J
=8||
*M3/4
2.F/
=9||
*M2/4
4.r
8e-/
=10
[2f/
=11
2f/]
=12
8c/L
8c/J
8c/
8r
=13
4f/
8g/L
8f/J
=14||
*M3/4
8f/L
8f/J
8e-/L
8e-/J
8d-/L
8e-/J
=15||
*M5/8
16d-/LK
8.d-/
8B-/
8A-/
8A-/J
=16||
*M3/4
2.F/
=17||
*M2/4
4.r
8F/
=18
[2A-/
=19
4A-/]
8d-/L
8d-/J
=20
4d-/
8d-/L
8B-/J
=21
4B-/
8A-/L
8B-/J
=22
8B-/L
[8A-/J
4A-/]
=23
2F/
=24
2F/
==
*-
